src/icons/csv.svg

<?xml version="1.0" encoding="UTF-8"?>
<svg xmlns="http://www.w3.org/2000/svg" xmlns:xlink="http://www.w3.org/1999/xlink" width="32" height="32" viewBox="0 0 32 32" version="1.1">
<g id="surface1">
<path style=" stroke:none;fill-rule:nonzero;fill:rgb(33.333334%,71.764708%,40.392157%);fill-opacity:1;" d="M 22.976562 4.960938 L 31.136719 4.960938 L 31.136719 10.398438 L 22.976562 10.398438 Z M 22.976562 13.34375 L 31.136719 13.34375 L 31.136719 18.785156 L 22.976562 18.785156 Z M 22.976562 21.601562 L 31.136719 21.601562 L 31.136719 27.039062 L 22.976562 27.039062 Z M 11.871094 21.601562 L 20.03125 21.601562 L 20.03125 27.039062 L 11.871094 27.039062 Z M 0.894531 21.601562 L 9.054688 21.601562 L 9.054688 27.039062 L 0.894531 27.039062 Z M 11.96875 13.40625 L 20.128906 13.40625 L 20.128906 18.847656 L 11.96875 18.847656 Z M 0.894531 13.40625 L 9.054688 13.40625 L 9.054688 18.847656 L 0.894531 18.847656 Z M 11.96875 4.960938 L 20.128906 4.960938 L 20.128906 10.398438 L 11.96875 10.398438 Z M 0.894531 4.960938 L 9.054688 4.960938 L 9.054688 10.398438 L 0.894531 10.398438 Z M 0.894531 4.960938 "/>
</g>
</svg>

<svg role="img" viewBox="0 0 32 32" xmlns="http://www.w3.org/2000/svg"><path d="M22.977 4.96h8.16v5.438h-8.16Zm0 8.384h8.16v5.441h-8.16Zm0 8.258h8.16v5.437h-8.16Zm-11.106 0h8.16v5.437h-8.16Zm-10.976 0h8.16v5.437H.895Zm11.074-8.196h8.16v5.442h-8.16Zm-11.074 0h8.16v5.442H.895Zm11.074-8.445h8.16v5.437h-8.16Zm-11.074 0h8.16v5.437H.895Zm0 0" style="stroke:none;fill-rule:nonzero;fill:rgb(33.333334%,71.764708%,40.392157%);fill-opacity:1"/></svg>
